packages/dnb-ui-lib/assets/icons/hourglass.svg

<svg width="16" height="16" viewBox="0 0 16 16" fill="none" xmlns="http://www.w3.org/2000/svg">
<path d="M15 15H13.04L11.2975 15M1 15H2.96L4.70251 15M8 8C5.45405 7.05394 4.01292 5.18898 3.60286 2.4662C3.57853 2.28424 3.58881 2.09838 3.63298 1.92143C3.67715 1.74448 3.75416 1.58067 3.8587 1.44128C3.96324 1.3019 4.09282 1.19026 4.2385 1.11408C4.38418 1.0379 4.54249 0.998985 4.70251 1.00002M8 8C10.5459 7.05394 11.9871 5.18898 12.3971 2.4662C12.4215 2.28424 12.4112 2.09838 12.367 1.92143C12.3229 1.74448 12.2458 1.58067 12.1413 1.44128C12.0368 1.3019 11.9072 1.19026 11.7615 1.11408C11.6158 1.0379 11.4575 0.998985 11.2975 1.00002M8 8C5.45405 8.94691 4.01292 10.8119 3.60286 13.5347C3.57865 13.7165 3.58901 13.9023 3.63324 14.0792C3.67746 14.256 3.75449 14.4197 3.85902 14.559C3.96355 14.6983 4.09308 14.8098 4.2387 14.886C4.38432 14.9621 4.54256 15.001 4.70251 15M8 8C10.5459 8.94691 11.9871 10.8119 12.3971 13.5347C12.4214 13.7165 12.411 13.9023 12.3668 14.0792C12.3225 14.256 12.2455 14.4197 12.141 14.559C12.0365 14.6983 11.9069 14.8098 11.7613 14.886C11.6157 14.9621 11.4574 15.001 11.2975 15M11.2975 1.00002H4.70251M11.2975 1.00002L13.04 1H15M4.70251 1.00002L2.96 1H1M4.70251 15H11.2975" stroke="black" stroke-width="1.5" stroke-linecap="round" stroke-linejoin="round"/>
</svg>

<svg width="16" height="16" viewBox="0 0 16 16" fill="none" xmlns="http://www.w3.org/2000/svg"><path d="M15 15h-3.702M1 15h3.703M8 8c-2.546-.946-3.987-2.811-4.397-5.534a1.458 1.458 0 01.03-.545c.044-.177.121-.34.226-.48.104-.14.234-.25.38-.327A.985.985 0 014.703 1M8 8c2.546-.946 3.987-2.811 4.397-5.534a1.456 1.456 0 00-.03-.545 1.341 1.341 0 00-.226-.48 1.134 1.134 0 00-.38-.327.985.985 0 00-.463-.114M8 8c-2.546.947-3.987 2.812-4.397 5.535-.024.181-.014.367.03.544.044.177.121.34.226.48.105.14.234.25.38.327a.986.986 0 00.464.114M8 8c2.546.947 3.987 2.812 4.397 5.535.024.181.014.367-.03.544a1.37 1.37 0 01-.226.48c-.104.14-.234.25-.38.327a.986.986 0 01-.463.114m0-14H4.702m6.594 0H15M4.703 1H1m3.703 14h6.594" stroke="#000" stroke-width="1.5" stroke-linecap="round" stroke-linejoin="round"/></svg>
